flaticon/music/drumsticks.svg

<svg xmlns="http://www.w3.org/2000/svg" width="32" height="23pt" viewBox="0 0 24 23">
    <path d="M 14.523438 11.507812 L 17.652344 8.511719 C 18.554688 7.648438 19.371094 6.691406 20.09375 5.652344 C 20.1875 5.519531 20.34375 5.484375 20.429688 5.476562 C 21.226562 5.390625 22.074219 4.964844 22.761719 4.304688 C 23.359375 3.734375 23.773438 3.046875 23.929688 2.367188 C 24.105469 1.613281 23.945312 0.949219 23.480469 0.503906 C 23.019531 0.0585938 22.328125 -0.09375 21.539062 0.0742188 C 20.832031 0.226562 20.113281 0.625 19.515625 1.195312 C 18.839844 1.84375 18.398438 2.644531 18.300781 3.390625 C 18.289062 3.488281 18.242188 3.667969 18.085938 3.769531 C 17.023438 4.445312 16.03125 5.226562 15.125 6.09375 L 12 9.089844 L 8.875 6.09375 C 7.96875 5.226562 6.976562 4.445312 5.914062 3.769531 C 5.757812 3.667969 5.710938 3.492188 5.699219 3.390625 C 5.601562 2.640625 5.160156 1.84375 4.484375 1.195312 C 3.886719 0.625 3.167969 0.226562 2.460938 0.0742188 C 1.671875 -0.09375 0.984375 0.0585938 0.519531 0.503906 C 0.0546875 0.949219 -0.105469 1.613281 0.0703125 2.367188 C 0.226562 3.046875 0.640625 3.734375 1.238281 4.304688 C 1.925781 4.964844 2.777344 5.390625 3.570312 5.476562 C 3.65625 5.484375 3.8125 5.519531 3.921875 5.675781 C 4.632812 6.695312 5.445312 7.648438 6.347656 8.511719 L 9.476562 11.507812 L 0.523438 20.085938 C 0.167969 20.429688 -0.0195312 20.902344 0.00390625 21.382812 C 0.0273438 21.863281 0.269531 22.316406 0.660156 22.625 C 0.972656 22.871094 1.363281 22.992188 1.757812 22.992188 C 2.238281 22.992188 2.730469 22.808594 3.097656 22.457031 L 12 13.925781 L 20.902344 22.457031 C 21.269531 22.808594 21.757812 22.992188 22.242188 22.992188 C 22.636719 22.992188 23.027344 22.871094 23.339844 22.625 C 23.730469 22.316406 23.972656 21.863281 23.996094 21.382812 C 24.019531 20.902344 23.832031 20.429688 23.476562 20.089844 Z M 12.722656 9.78125 L 15.847656 6.785156 C 16.703125 5.964844 17.644531 5.222656 18.652344 4.582031 C 19.015625 4.347656 19.253906 3.96875 19.3125 3.515625 C 19.382812 2.976562 19.71875 2.382812 20.238281 1.886719 C 20.691406 1.449219 21.246094 1.136719 21.757812 1.027344 C 22.011719 0.976562 22.476562 0.925781 22.761719 1.195312 C 23.042969 1.46875 22.992188 1.914062 22.933594 2.15625 C 22.820312 2.648438 22.496094 3.179688 22.039062 3.613281 C 21.519531 4.113281 20.878906 4.445312 20.316406 4.503906 C 19.871094 4.550781 19.480469 4.773438 19.226562 5.132812 C 18.558594 6.097656 17.785156 7 16.929688 7.820312 L 13.800781 10.816406 Z M 2.378906 21.765625 C 2.074219 22.058594 1.601562 22.101562 1.304688 21.867188 C 1.132812 21.734375 1.03125 21.542969 1.023438 21.335938 C 1.011719 21.128906 1.09375 20.925781 1.246094 20.777344 L 10.199219 12.199219 L 11.28125 13.234375 Z M 22.695312 21.867188 C 22.398438 22.101562 21.925781 22.058594 21.621094 21.765625 L 7.070312 7.820312 C 6.214844 7.003906 5.441406 6.097656 4.753906 5.109375 C 4.519531 4.773438 4.128906 4.550781 3.683594 4.503906 C 3.121094 4.445312 2.480469 4.113281 1.960938 3.613281 C 1.503906 3.179688 1.179688 2.648438 1.066406 2.15625 C 1.007812 1.914062 0.957031 1.46875 1.238281 1.195312 C 1.410156 1.035156 1.644531 0.988281 1.859375 0.988281 C 2.003906 0.988281 2.140625 1.007812 2.242188 1.027344 C 2.753906 1.136719 3.308594 1.449219 3.761719 1.886719 C 4.28125 2.382812 4.617188 2.976562 4.6875 3.515625 C 4.746094 3.960938 4.988281 4.351562 5.347656 4.582031 C 6.355469 5.222656 7.296875 5.964844 8.152344 6.785156 L 22.753906 20.777344 C 22.910156 20.925781 22.988281 21.125 22.976562 21.332031 C 22.96875 21.542969 22.867188 21.734375 22.695312 21.867188 Z M 22.695312 21.867188"/>
</svg>

<svg xmlns="http://www.w3.org/2000/svg" width="32" height="23pt" viewBox="0 0 24 23">
    <path d="M14.523 11.508l3.13-2.996a18.836 18.836 0 0 0 2.44-2.86.46.46 0 0 1 .337-.175c.797-.086 1.644-.512 2.332-1.172.597-.57 1.011-1.258 1.168-1.938.175-.754.015-1.418-.45-1.863-.46-.445-1.152-.598-1.94-.43-.708.153-1.427.551-2.024 1.121-.676.649-1.118 1.45-1.215 2.196-.012.097-.059.277-.215.379a19.165 19.165 0 0 0-2.961 2.324L12 9.09 8.875 6.094a19.165 19.165 0 0 0-2.96-2.324.52.52 0 0 1-.216-.38c-.097-.75-.539-1.546-1.215-2.195C3.887.625 3.168.227 2.461.075 1.67-.095.984.058.52.503.055.949-.105 1.614.07 2.367c.157.68.57 1.367 1.168 1.938.688.66 1.54 1.086 2.332 1.172a.472.472 0 0 1 .352.199 18.84 18.84 0 0 0 2.426 2.836l3.129 2.996-8.954 8.578a1.691 1.691 0 0 0-.52 1.297 1.7 1.7 0 0 0 .657 1.242 1.77 1.77 0 0 0 1.098.367c.48 0 .972-.183 1.34-.535L12 13.926l8.902 8.531c.368.352.856.535 1.34.535a1.77 1.77 0 0 0 1.098-.367 1.7 1.7 0 0 0 .656-1.242 1.678 1.678 0 0 0-.52-1.293zm-1.8-1.727l3.125-2.996a18.055 18.055 0 0 1 2.804-2.203c.364-.234.602-.613.66-1.066.07-.54.407-1.133.926-1.63.453-.437 1.008-.75 1.52-.859.254-.05.719-.101 1.004.168.281.274.23.72.172.961-.114.492-.438 1.024-.895 1.457-.52.5-1.16.832-1.723.89a1.51 1.51 0 0 0-1.09.63A17.664 17.664 0 0 1 16.93 7.82l-3.13 2.996zM2.379 21.766c-.305.293-.777.336-1.074.101a.704.704 0 0 1-.282-.531.725.725 0 0 1 .223-.559L10.2 12.2l1.082 1.035zm20.316.101c-.297.235-.77.192-1.074-.101L7.071 7.82a17.752 17.752 0 0 1-2.317-2.71 1.484 1.484 0 0 0-1.07-.606c-.563-.059-1.204-.39-1.723-.89-.457-.434-.781-.966-.895-1.458-.058-.242-.109-.687.172-.96.172-.16.407-.208.621-.208.145 0 .282.02.383.04.512.109 1.067.421 1.52.859.52.496.855 1.09.925 1.629.06.445.301.836.66 1.066 1.008.64 1.95 1.383 2.805 2.203l14.602 13.992a.703.703 0 0 1 .223.555.705.705 0 0 1-.282.535zm0 0"/>
</svg>
